X:1
T:O day of radiant gladness
T:O day of radiant gladness
T:Charles H. Giffen
T:Copyright © 2004 by Charles H. Giffen
T:Copyright © 2004 by Charles H. Giffen
T:Copyright © 2004 by Charles H. Giffen
T:Copyright © 2004 by Charles H. Giffen
T:Copyright © 2004 by Charles H. Giffen
T:Copyright © 2004 by Charles H. Giffen
C:Charles H. Giffen
Z:Copyright © 2004 by Charles H. Giffen
%%score 1 [ ( 2 3 ) ( 4 5 ) ]
L:1/8
Q:1/4=88
M:4/4
K:G
V:1 treble nm="Descant"
V:2 treble nm="MusicXML Part"
V:3 treble 
V:4 bass nm="MusicXML Part"
V:5 bass 
V:1
 B2 | G2 A2 B2 c2 | d2 e2 f2 g2 | g2 e2 d2 c2 | B6 B2 | G2 A2 B2 c2 | d2 e2 f2 g2 | g2 e2 d2 c2 | %8
w: 2This|day at the cre-|a- * tion, the|light first had its|birth; this|day for our sal-|va- * tion Christ|rose from depths of|
 B6 G2 | de f2 g2 g2 | d2 e2 d2 c2 | Bc d2 d2 e2 | f6 d2 | ef g2 ec B2 | d2 e2 f2 g2 | %15
w: earth; this|day _ our Lord vic-|to- * rious the|Spi- * rit sent from|heaven, and|thus _ this day _ most|glo- * rious a|
 g2 e2 de f2 | g6 :: B2 | G2 A2 B2 c2 | d2 e2 f2 g2 | g2 e2 d2 c2 | B6 B2 | G2 A2 B2 c2 | %23
w: tri- ple light _ was|given.|4That|light our hope sus-|tain- * ing, we|walk the pil- grim|way, at|length our rest at-|
 d2 e2 f2 g2 | g2 e2 de f2 | g6 G2 | de f2 g2 g2 | a2 g2 f2 ef | g2 fe d2 e2 | f6 d2 | %30
w: tain- * ing, our|end- less Sab- * bath|day. We|sing _ to thee our|prais- * es, O _|Fa- ther, _ Spi- rit,|Son; the|
 ef g2 ec B2 | d2 e2 f2 g2 | g2 ef g2 a2 | g6 :| %34
w: Church _ her voice _ up-|rais- * es to|thee, blest _ Three in|One.|
V:2
 G2 |"^Instrument change" G2 d2 B2 G2 |"^Instrument change" F3 G"^Instrument change" A2 D2 | %3
w: 1O|day of ra- diant|glad- * ness, O|
w: 2This|day at the cre-|a- * tion, the|
"^Instrument change" E2 G2 G2 F2 |"^Instrument change" G6"^Instrument change" G2 | %5
w: day of joy and|light, O|
w: light first had its|birth; this|
"^Instrument change" G2"^Instrument change" d2 B2 G2 | %6
w: balm of care and|
w: day for our sal-|
"^Instrument change" F3 G"^Instrument change" A2 D2 |"^Instrument change" E2 G2 G2 F2 | %8
w: sad- * ness, most|beau- ti- ful, most|
w: va- * tion Christ|rose from depths of|
"^Instrument change" G6"^Instrument change" B2 | %9
w: bright; this|
w: earth; this|
"^Instrument change" G2"^Instrument change" d2 dc B2 | %10
w: day the high _ and|
w: day our Lord _ vic-|
"^Instrument change" A4"^Instrument change" A2 =c2 | %11
w: low- ly, through|
w: to- rious the|
"^Instrument change" B2"^Instrument change" A2 B2 G2 | %12
w: a- ges joined in|
w: Spi- rit sent from|
"^Instrument change" A6"^Instrument change" d2 | %13
w: tune, sing,|
w: heaven, and|
"^Instrument change" c2"^Instrument change" B2 A2 G2 | %14
w: "Ho- ly, ho- ly,|
w: thus this day most|
"^Instrument change" F3 G"^Instrument change" A2 D2 |"^Instrument change" E2 G2 G2 F2 | %16
w: ho- * ly," to|the great God Tri-|
w: glo- * rious a|tri- ple light was|
"^Instrument change" G6 ::"^Instrument change" G2 | %18
w: une.|3This|
w: given.|4That|
"^Instrument change" G2"^Instrument change" d2 B2 G2 |"^Instrument change" F3 G A2 D2 | %20
w: day, God's peo- ple|meet- * ing, his|
w: light our hope sus-|tain- * ing, we|
"^Instrument change" E2 G2 G2 F2 |"^Instrument change" G6"^Instrument change" G2 | %22
w: Ho- ly Scrip- ture|hear; his|
w: walk the pil- grim|way, at|
"^Instrument change" G2"^Instrument change" d2 B2 G2 |"^Instrument change" F3 G A2 D2 | %24
w: liv- ing pres- ence|greet- * ing, through|
w: length our rest at-|tain- * ing, our|
"^Instrument change" E2"^Instrument change" G2 G2 F2 | %25
w: Bread and Wine made|
w: end- less Sab- bath|
"^Instrument change" G6"^Instrument change" B2 | %26
w: near. We|
w: day. We|
"^Instrument change" G2"^Instrument change" d2 dc B2 | %27
w: jour- ney on, _ be-|
w: sing to thee _ our|
"^Instrument change" A4"^Instrument change" A2 =c2 | %28
w: liev- ing, re-|
w: prais- es, O|
"^Instrument change" B2"^Instrument change" A2 B2 G2 | %29
w: newed with heaven- ly|
w: Fa- ther, Spi- rit,|
"^Instrument change" A6"^Instrument change" d2 | %30
w: might, from|
w: Son; the|
"^Instrument change" c2"^Instrument change" B2 A2 G2 |"^Instrument change" F3 G A2 D2 | %32
w: grace more grace re-|ceiv- * ing on|
w: Church her voice up-|rais- * es to|
"^Instrument change" E2 G2 G2 F2 |"^Instrument change" G6 :| %34
w: this blest day of|light.|
w: thee, blest Three in|One.|
V:3
 D2 | E2 A2 G2 E2 | D4 D2 D2 | D"^Instrument change"C B,2 D2 D2 | D6 D2 | E2 A2 G2 E2 | D4 D2 D2 | %7
 D"^Instrument change"C B,2 D2 D2 | D6 D2 | D2 A2 G2 G2 | E4 F2 E2 | D2 D2 D2 B,2 | D6 D2 | %13
 E2 D2 C2 D2 | D4 D2 D2 | D"^Instrument change"C B,C D2 D2 | D6 :: D2 | E2 A2 G2 E2 | %19
 D2"^Instrument change" ^C2 D2 D2 | D"^Instrument change"C B,2 D2 D2 | D6 D2 | E2 A2 G2 E2 | %23
 D2"^Instrument change" ^C2 D2 D2 | D2 CB, D2 D2 | D6 D2 | D2 A2 G2 G2 | E4 F2 E2 | D2 D2 D2 B,2 | %29
 D6 D2 | E2 D2 C2 D2 | D2"^Instrument change" ^C2 D2 D2 | D"^Instrument change"C B,C D2 D2 | D6 :| %34
V:4
 B,2 |"^Instrument change" B,2 A,2 D2 CB, | %2
"^Instrument change" A,G,F,E,"^Instrument change" F,2 G,2 | %3
"^Instrument change" G,2"^Instrument change" G,2 A,2 A,2 | %4
"^Instrument change" B,6"^Instrument change" B,2 | %5
"^Instrument change" B,2"^Instrument change" A,2 D2 CB, | %6
"^Instrument change" A,G,F,E,"^Instrument change" F,2 G,2 | %7
"^Instrument change" G,2"^Instrument change" G,2 A,2 A,2 | %8
"^Instrument change" B,6"^Instrument change" G,2 | %9
"^Instrument change" B,2"^Instrument change" A,C B,C D2 | %10
"^Instrument change" D2 ^C2"^Instrument change" D2 G,2 | %11
"^Instrument change" G,2"^Instrument change" F,2 F,2 G,2 | %12
"^Instrument change" F,6"^Instrument change" G,2 | %13
"^Instrument change" G,2"^Instrument change" G,2 E,F, G,D | %14
"^Instrument change" CB,A,G,"^Instrument change" F,2 G,2 | %15
"^Instrument change" G,2"^Instrument change" G,2 A,2 A,2 |"^Instrument change" B,6 :: %17
"^Instrument change" B,2 |"^Instrument change" B,2"^Instrument change" A,2 D2 CB, | %19
"^Instrument change" A,G,"^Instrument change"F,E, F,2 G,2 | %20
"^Instrument change" G,2"^Instrument change" G,2 A,2 A,2 | %21
"^Instrument change" B,6"^Instrument change" B,2 | %22
"^Instrument change" B,2"^Instrument change" A,2 B,2 CB, | %23
"^Instrument change" A,G,"^Instrument change"F,E, F,2 G,2 | %24
"^Instrument change" G,2"^Instrument change" G,2 A,2 A,2 | %25
"^Instrument change" B,6"^Instrument change" G,2 | %26
"^Instrument change" B,2"^Instrument change" A,C B,C D2 | %27
"^Instrument change" D2"^Instrument change" ^C2 D2 G,2 | %28
"^Instrument change" G,2"^Instrument change" F,2 F,2 G,2 | %29
"^Instrument change" F,6"^Instrument change" G,2 | %30
"^Instrument change" G,2"^Instrument change" G,2 E,F, G,D | %31
"^Instrument change" CB,"^Instrument change"A,G, F,2 G,2 | %32
"^Instrument change" G,2"^Instrument change" G,2 A,2 A,2 |"^Instrument change" B,6 :| %34
V:5
 G,2 | E,2 F,2 G,2 C,2 | D,4 D,2 B,,2 | C,2 E,2 D,2 D,2 | G,,6 G,2 | E,2 F,2 G,2 C,2 | %6
 D,4 D,2 B,,2 | C,2 E,2 D,2 D,2 | G,,6 G,,2 | G,2 F,2 G,2 G,2 | A,4 D,2 =C,2 | G,2 D,2 B,,2 E,2 | %12
 D,6 B,,2 | C,2 G,,2 A,,2 B,,2 | D,4 D,2 B,,2 | C,2 E,2 D,2 D,2 | G,,6 :: G,2 | E,2 F,2 G,2 C,2 | %19
 D,2 A,,2 D,=C, B,,2 | C,2 E,2 D,2 D,,2 | G,,6 G,2 | E,2 F,2 G,2 C,2 | D,2 A,,2 D,=C, B,,2 | %24
 C,2 E,2 D,2 D,,2 | G,,6 G,,2 | G,2 F,2 G,2 G,2 | A,2 A,,2 D,2 =C,2 | G,2 D,C, B,,2 E,2 | %29
 D,6 B,,2 | C,2 G,,2 A,,2 B,,2 | D,2 A,,2 D,=C, B,,2 | C,2 E,2 D,2 D,,2 | G,,6 :| %34

